X: 32550
T: Planxty Garvin
R: jig
M: 6/8
K: Eminor
|:efg agf|efg bgf|dfg aga|bc'b agf|
efg agf|efg bgf|dfg afg|agf e3:|
|:ega bc'd'|e'2e' d'c'b|efg gab|d2f agf|
ega bc'd'|e'2e' d'c'b|c'd'b c'ab|gaf e3:|

